icons/database_fill.svg

<svg width="48" height="48" viewBox="0 0 48 48" fill="none" xmlns="http://www.w3.org/2000/svg">
<path fill-rule="evenodd" clip-rule="evenodd" d="M39 9.75V16.1786C39 18.2496 32.2843 19.9286 24 19.9286C15.7157 19.9286 9 18.2496 9 16.1786V9.75C9 7.67893 15.7157 6 24 6C32.2843 6 39 7.67893 39 9.75ZM9.62114 19.7144C11.4651 21.2634 17.2049 22.393 24 22.393C30.7951 22.393 36.5349 21.2634 38.3789 19.7144C38.783 20.0538 39 20.4134 39 20.7857V27.2143C39 29.2853 32.2843 30.9643 24 30.9643C15.7157 30.9643 9 29.2853 9 27.2143V20.7858C9.00002 20.4135 9.21703 20.0538 9.62114 19.7144ZM24 33.6786C17.205 33.6786 11.4652 32.549 9.62118 31C9.21703 31.3395 9 31.6991 9 32.0714V38.5C9 40.5711 15.7157 42.25 24 42.25C32.2843 42.25 39 40.5711 39 38.5V32.0714C39 31.6991 38.783 31.3395 38.3788 31C36.5348 32.549 30.795 33.6786 24 33.6786ZM32.3333 37.3333C32.3333 37.9777 31.811 38.5 31.1667 38.5C30.5223 38.5 30 37.9777 30 37.3333C30 36.689 30.5223 36.1667 31.1667 36.1667C31.811 36.1667 32.3333 36.689 32.3333 37.3333ZM35.8333 37.3333C36.4777 37.3333 37 36.811 37 36.1667C37 35.5223 36.4777 35 35.8333 35C35.189 35 34.6667 35.5223 34.6667 36.1667C34.6667 36.811 35.189 37.3333 35.8333 37.3333Z" fill="black"/>
</svg>

<svg
  xmlns="http://www.w3.org/2000/svg"
  width="24"
  height="24"
  viewBox="0 0 24 24"
  fill="none"
  stroke="currentColor"
  stroke-width="2"
  stroke-linecap="round"
  stroke-linejoin="round"
>
  <path
    fill-rule="evenodd"
    d="M39 9.75v6.429c0 2.07-6.716 3.75-15 3.75s-15-1.68-15-3.75V9.75C9 7.679 15.716 6 24 6s15 1.679 15 3.75M9.621 19.714c1.844 1.55 7.584 2.679 14.379 2.679s12.535-1.13 14.379-2.679c.404.34.621.7.621 1.072v6.428c0 2.071-6.716 3.75-15 3.75s-15-1.679-15-3.75v-6.428c0-.373.217-.732.621-1.072M24 33.68c-6.795 0-12.535-1.13-14.379-2.679-.404.34-.621.7-.621 1.071V38.5c0 2.071 6.716 3.75 15 3.75s15-1.679 15-3.75v-6.429c0-.372-.217-.731-.621-1.071-1.844 1.549-7.584 2.679-14.379 2.679m8.333 3.654a1.167 1.167 0 1 1-2.333 0 1.167 1.167 0 0 1 2.333 0m3.5 0a1.167 1.167 0 1 0 0-2.333 1.167 1.167 0 0 0 0 2.333"
    clip-rule="evenodd"
  />
</svg>
